X: 1966
T: Yanıyor mu Yeşil Köşkün Lambası
C: (Anonim)
O: Turkey
F: http://compmusic.upf.edu/node/140
N: huzzam--turku--aksak--yaniyor_mu--
N: makam= huzzam
N: form= turku
N: usul= aksak = 9/8
M: 9/8
L: 1/16
K: C _1/4B _3/4e ^3/4f 
Q: 1/4=180
%%MIDI tuningsystem comma53
fg2g g2gf fede f4 ed | d2 cBf2 eddc B^ABc defg  | 
w:  ARANAĞME  |   | 
fg2g g2gf fede f4 ed | d2 cBf2 eddc B^ABc defg  | 
w:  ARANAĞME  |   | 
z4 f2f2 f4 f4 ed | d4e2 f2g4a6  | g3f e2g2 f2e2 d4 cB | 
w:  Ya nı yor  mu   |  *  ye şil  köş kün   |  lam *  ba sı  yâr    | 
B4f2 f2f4f4ed  | d4 e2f2 g4 a6 | g3fe2 g2f2 e2d4c2  | \
w:  *  Ya nı yor  mu   |  *  ye şil  köş kün   |  lam *  ba sı  yâr    | 
e4 e2g2 f2e2 d2c2 B2 | 
w:  Hiç  bit *  mi *  yor   | 
g2 g6f2 edd2 e2f2  | d2ed dccB B4 ede4 | \
w:  şu  gön lü *  *  mün   |  kav *  *  ga *  sı  *  yâr   SAZ  | 
e4e2 g2f2 e2d2 c2B2  | 
w:  Hiç  bit *  mi *  yor   | 
g2g6 f2ed d2e2 f2 | d2 eddc cBB4f4^eg  | \
w:  şu  gön lü *  *  mün   |  kav *  *  ga *  sı  *  yâr   SAZ  | 
f4 f2f2 f4 f4 ed | 
w:  *  Be nim  yâ rim   | 
d4e2 f2g4a6  | g3f e2g2 f2e2 d4 cB | \
w:  *  kır mı zı  gül   |  gon *  ca sı  yâr    | 
B4f2 f2f4f4ed  | 
w:  *  Be nim  yâ rim   | 
d4 e2f2 g4 a6 | g3fe2 g2f2 e2d4d2  | \
w:  *  kır mı zı  gül   |  gon *  ca sı  yâr    | 
e4 e2g2 f2e2 d2c2 B2 | 
w:  Ay  gi bi  par *  lak   | 
g4g2 g2f2 edd2 e2f2  | d2ed dccB B4 ede4 | \
w:  gün  gi bi  do *  *  ğa  |  nım  *  *  ge *  li *  yor   SAZ  | 
e4e2 g2f2 e2d2 c2B2  | 
w:  Ay  gi bi  par *  lak   | 
g4 g2g2 f2ed d2e2 f2 | d2 eddc cBB8-B2  | \
w:  gün  gi bi  do *  *  ğa  |  nım  *  *  ge *  li *  yor    | 
fg2g g2gf fede f4 ed | 
w:  ARANAĞME  | 
d2 cBf2 eddc B^ABc defg  | fg2g g2gf fede f4 ed | 
w:   |  ARANAĞME  | 
d2 cBf2 eddc B^ABc defg  | z4 f2f2 f4 f4 ed | 
w:   |  Ya nı yor  mu   | 
d4e2 f2g4a6  | g3f e2g2 f2e2 d4 cB | \
w:  *  ye şil  köş kün   |  lam *  ba sı  yâr    | 
B4f2 f2f4f4ed  | 
w:  *  Ya nı yor  mu   | 
d4 e2f2 g4 a6 | g3fe2 g2f2 e2d4c2  | \
w:  *  ye şil  köş kün   |  lam *  ba sı  yâr    | 
e4 e2g2 f2e2 d2c2 B2 | 
w:  Hiç  bit *  mi *  yor   | 
g2 g6f2 edd2 e2f2  | d2ed dccB B4 ede4 | \
w:  şu  gön lü *  *  mün   |  kav *  *  ga *  sı  *  yâr   SAZ  | 
e4e2 g2f2 e2d2 c2B2  | 
w:  Hiç  bit *  mi *  yor   | 
g2g6 f2ed d2e2 f2 | d2 eddc cBB4f4^eg  | \
w:  şu  gön lü *  *  mün   |  kav *  *  ga *  sı  *  yâr   SAZ  | 
f4 f2f2 f4 f4 ed | 
w:  *  Be nim  yâ rim   | 
d4e2 f2g4a6  | g3f e2g2 f2e2 d4 cB | \
w:  *  kır mı zı  gül   |  gon *  ca sı  yâr    | 
B4f2 f2f4f4ed  | 
w:  *  Be nim  yâ rim   | 
d4 e2f2 g4 a6 | g3fe2 g2f2 e2d4d2  | \
w:  *  kır mı zı  gül   |  gon *  ca sı  yâr    | 
e4 e2g2 f2e2 d2c2 B2 | 
w:  Ay  gi bi  par *  lak   | 
g4g2 g2f2 edd2 e2f2  | d2ed dccB B4 ede4 | \
w:  gün  gi bi  do *  *  ğa  |  nım  *  *  ge *  li *  yor   SAZ  | 
e4e2 g2f2 e2d2 c2B2  | 
w:  Ay  gi bi  par *  lak   | 
g4 g2g2 f2ed d2e2 f2 | d2 eddc cBB8-B2  | |


